X: 1
T: Inis Siar
T: Inisheer
C: Thomas Walsh
R: waltz
S: printed page ofknown origin from Darlene Wigton 2019-3-13
Z: 2019 John Chambers <jc:trillian.mit.edu>
M: 3/4
L: 1/8
K: G
   zD2 |\
"G"B3 A B<d |"Bm"B3 A B<d | "C"E3 B A>B | "D"D3 B AG |\
"G"B3 A B<d |"Bm"B3 A B<d | "C"E3 B "D"A/G/F | "G"G3 :|
|: ABd |\
 "C"e3 f ed | "G"B3 A Bd | "C"ef ed B/c/d | "C"e4 Bd |\
"Am"e3 f ed | "G"B3 A "Em"B<d | "D"D3 B A/G/F | "G"G3 :|

%%sep 1 1 500

